X: 1
T: High Part Of The Road, The
M: 6/8
L: 1/8
D: Danu, When All is Said and Done
K: G
~B3 cBc|ded cAG|F2D DED|DGG FGA|
~B3 cBc|dcA deg|fed cAF|1 AGF GAc:|2 AGF G2 f||
~g3 def|g/g/ga bag|~f3 d^cd|afd cBA|
~g3 def|g/g/a bag|fed cAF|1 AGF G2 f:|2 AGF GAc||
